X: 1
T: Humours Of Kinvara, The
M: 4/4
L: 1/8
R: reel
K: Edor
c|:BE (3EEE BEdc|BE (3EEE BcdB|cA (3AAA cdeA|(3Bcd ef e2de:|
|:fffe dcBA|fffe d4|fffe fgaf|ecAc e2de:|
